img/svgicons/wallet.svg

<svg width="48" height="48" viewBox="0 0 48 48" fill="none" xmlns="http://www.w3.org/2000/svg">
<circle cx="24" cy="24" r="18" fill="#337D5A"/>
<circle cx="24" cy="24" r="24" fill="#93B474" fill-opacity="0.15"/>
<g clip-path="url(#clip0_302_22)">
<path d="M33.1826 23.0839V20.2729C33.1826 19.3197 32.5172 18.5446 31.6764 18.4694L29.327 13.9098C29.1093 13.4881 28.7577 13.1867 28.3371 13.0616C27.9184 12.9373 27.4805 13.0025 27.1058 13.2449L19.0518 18.4547H17.6373C16.7349 18.4547 16.001 19.2701 16.001 20.2729V31.1818C16.001 32.1846 16.7348 33 17.6373 33H31.5462C32.4487 33 33.1826 32.1846 33.1826 31.1818V28.3709C33.6577 28.1826 34.0007 27.6828 34.0007 27.091V24.3638C34.0007 23.7719 33.6577 23.2721 33.1826 23.0839ZM27.5177 14.0305C27.703 13.9102 27.9192 13.8783 28.1253 13.9396C28.3343 14.0017 28.5084 14.1517 28.6167 14.3617L29.4139 15.9088C29.0503 16.0883 28.6622 16.1821 28.2735 16.1821C27.3949 16.1821 26.5899 15.739 26.0495 14.9803L27.5177 14.0305ZM25.3388 15.44C26.0327 16.4794 27.101 17.0912 28.2735 17.0912C28.8043 17.0912 29.3306 16.9521 29.8195 16.6961L30.7257 18.4548H20.678L25.3388 15.44ZM32.3644 31.1818C32.3644 31.683 31.9972 32.0909 31.5462 32.0909H17.6373C17.1863 32.0909 16.8192 31.683 16.8192 31.1818V20.2729C16.8192 19.7718 17.1863 19.3639 17.6373 19.3639H31.5462C31.9972 19.3639 32.3644 19.7718 32.3644 20.2729V23.0001H29.9099C28.5563 23.0001 27.4553 24.2235 27.4553 25.7274C27.4553 27.2313 28.5563 28.4546 29.9099 28.4546H32.3644V31.1818ZM33.1826 27.091C33.1826 27.3418 32.9992 27.5455 32.7735 27.5455H29.9099C29.0074 27.5455 28.2735 26.7301 28.2735 25.7274C28.2735 24.7246 29.0074 23.9092 29.9099 23.9092H32.7735C32.9992 23.9092 33.1826 24.1129 33.1826 24.3638V27.091Z" fill="white"/>
<path d="M29.909 24.8183C29.458 24.8183 29.0908 25.2262 29.0908 25.7273C29.0908 26.2285 29.458 26.6364 29.909 26.6364C30.36 26.6364 30.7271 26.2285 30.7271 25.7273C30.7272 25.2262 30.36 24.8183 29.909 24.8183Z" fill="white"/>
</g>
<defs>
<clipPath id="clip0_302_22">
<rect width="18" height="20" fill="white" transform="translate(16 13)"/>
</clipPath>
</defs>
</svg>

<svg width="48" height="48" fill="none" xmlns="http://www.w3.org/2000/svg"><circle cx="24" cy="24" r="18" fill="#337D5A"/><circle cx="24" cy="24" r="24" fill="#93B474" fill-opacity=".15"/><g clip-path="url(#a)" fill="#fff"><path d="M33.183 23.084v-2.811c0-.953-.666-1.728-1.507-1.804l-2.349-4.56a1.652 1.652 0 0 0-.99-.847 1.468 1.468 0 0 0-1.231.183l-8.054 5.21h-1.415c-.902 0-1.636.815-1.636 1.818v10.909c0 1.003.734 1.818 1.636 1.818h13.91c.902 0 1.636-.815 1.636-1.818V28.37c.475-.188.818-.688.818-1.28v-2.727c0-.592-.343-1.092-.818-1.28Zm-5.665-9.053a.723.723 0 0 1 .607-.091.82.82 0 0 1 .492.422l.797 1.547c-.364.18-.752.273-1.14.273-.88 0-1.684-.443-2.225-1.202l1.469-.95Zm-2.18 1.409c.695 1.04 1.763 1.651 2.935 1.651.531 0 1.058-.139 1.547-.395l.906 1.759H20.678l4.66-3.015Zm7.026 15.742c0 .501-.367.909-.818.909H17.637c-.45 0-.818-.408-.818-.91V20.274c0-.501.367-.91.818-.91h13.91c.45 0 .817.409.817.91V23H29.91c-1.354 0-2.455 1.224-2.455 2.727 0 1.504 1.101 2.728 2.455 2.728h2.454v2.727Zm.819-4.091c0 .25-.184.454-.41.454H29.91c-.903 0-1.637-.815-1.637-1.818 0-1.002.734-1.818 1.637-1.818h2.863c.226 0 .41.204.41.455v2.727Z"/><path d="M29.909 24.818c-.451 0-.818.408-.818.91 0 .5.367.908.818.908.451 0 .818-.407.818-.909 0-.5-.367-.909-.818-.909Z"/></g><defs><clipPath id="a"><path fill="#fff" transform="translate(16 13)" d="M0 0h18v20H0z"/></clipPath></defs></svg>
